src/assets/image/block12/sber-logo-ru 1.svg

<svg width="149" height="29" viewBox="0 0 149 29" fill="none" xmlns="http://www.w3.org/2000/svg">
<g clip-path="url(#clip0_201_3941)">
<path d="M28.6898 26.4337L23.8984 17.8115H26.165L29.6844 24.2036L32.563 17.8115H34.6096L30.6025 26.5298C29.7131 28.4522 28.8811 28.9521 27.7716 28.9521C27.3413 28.9521 26.9109 28.8655 26.4998 28.7022V26.6548C26.8249 26.9431 27.2552 27.0969 27.6856 27.0969C28.0968 27.0969 28.4411 26.9335 28.6898 26.4337Z" fill="#343434"/>
<path d="M44.5174 24.0594H38.521V28.8271H36.5605V17.8115H38.521V22.2524H44.5174V17.8115H46.4778V28.8271H44.5174V24.0594Z" fill="#343434"/>
<path d="M51.5955 26.0395L57.5726 17.8115H59.7053V28.8271H57.7448V20.4741L51.7389 28.8271H49.6445V17.8115H51.605V26.0395H51.5955Z" fill="#343434"/>
<path d="M62.8711 28.8271V17.8115H67.6337C70.0724 17.8115 71.3252 18.7247 71.3252 20.551C71.3252 21.8102 70.8279 22.6465 69.6994 23.0887C71.0479 23.3289 71.6599 24.194 71.6599 25.6262C71.6599 27.9043 70.0341 28.8367 67.3659 28.8367L62.8711 28.8271ZM67.3468 22.4734C68.5805 22.4734 69.3647 21.9255 69.3647 20.974C69.3647 20.0896 68.7813 19.6186 67.3946 19.6186H64.8316V22.4638H67.3468V22.4734ZM67.4902 27.02C68.9917 27.02 69.6802 26.5298 69.6802 25.482C69.6802 24.4343 68.8961 24.0114 67.5189 24.0114H64.8221V27.0104L67.4902 27.02Z" fill="#343434"/>
<path d="M81.1938 24.0594H76.1539V27.0104H81.9497V28.8175H74.2031V17.8115H81.7774V19.6186H76.1539V22.2427H81.1938V24.0594Z" fill="#343434"/>
<path d="M86.5391 25.3955V28.8271H84.5781V17.8115H88.2312C91.6938 17.8115 93.1663 19.0515 93.1663 21.5411C93.1663 24.1075 91.4452 25.3955 88.2312 25.3955H86.5391ZM86.5391 19.6186V23.5885H88.3751C90.1922 23.5885 91.129 22.9925 91.129 21.493C91.129 20.1377 90.3164 19.6186 88.4034 19.6186H86.5391Z" fill="#343434"/>
<path d="M104.69 27.6161C104.145 28.2794 102.701 29.0003 100.808 29.0003C97.2405 28.9811 94.8594 26.8568 94.8594 23.3003C94.8594 19.984 97.2121 17.6387 100.836 17.6387C102.558 17.6387 103.83 18.177 104.47 18.6287V21.3682C103.639 20.1763 102.29 19.4554 100.836 19.4458C98.4456 19.4458 96.973 21.003 96.973 23.3195C96.973 25.463 98.2733 27.1452 100.798 27.1932C102.711 27.1932 104.049 26.3089 104.7 25.1939L104.69 27.6161Z" fill="#343434"/>
<path d="M108.977 26.0395L114.953 17.8115H117.086V28.8271H115.126V20.4741L109.11 28.8271H107.016V17.8115H108.977V26.0395Z" fill="#343434"/>
<path d="M128.333 19.6186H124.641V28.8271H122.681V19.6186H119.047V17.8115H128.333V19.6186Z" fill="#343434"/>
<path d="M137.284 24.0594H132.244V27.0104H138.04V28.8175H130.293V17.8115H137.867V19.6186H132.244V22.2427H137.284V24.0594Z" fill="#343434"/>
<path d="M148.826 19.6186H145.134V28.8271H143.173V19.6186H139.539V17.8115H148.826V19.6186Z" fill="#343434"/>
<path d="M52.9829 5.46972L55.4599 3.63379H47.1875V14.6398H55.4599V12.8134H49.5497V9.98746H54.5896V8.16111H49.5497V5.46972H52.9829Z" fill="#343434"/>
<path d="M40.9304 7.93041H38.0614V5.46972H42.6518L45.1288 3.63379H35.6992V14.6398H40.634C43.3978 14.6398 44.9853 13.3805 44.9853 11.1794C44.9853 9.08389 43.5413 7.93041 40.9304 7.93041ZM40.5192 12.8134H38.0614V9.76641H40.5288C42.0303 9.76641 42.7284 10.2758 42.7284 11.2947C42.7188 12.3232 41.9824 12.8134 40.5192 12.8134Z" fill="#343434"/>
<path d="M62.1645 3.63379H57.6602V14.6398H60.0224V11.5254H62.1645C65.0431 11.5254 66.8316 10.0067 66.8316 7.5748C66.8316 5.14291 65.0431 3.63379 62.1645 3.63379ZM62.1167 9.68948H60.0224V5.46972H62.1167C63.6278 5.46972 64.4598 6.21947 64.4598 7.58437C64.4598 8.94933 63.6278 9.68948 62.1167 9.68948Z" fill="#343434"/>
<path d="M31.6456 12.2554C31.024 12.5918 30.3163 12.7745 29.6086 12.7649C27.4759 12.7649 25.9362 11.2365 25.9362 9.13149C25.9362 7.0264 27.4855 5.49805 29.6086 5.49805C30.3737 5.48844 31.1292 5.71913 31.7604 6.1709L33.4531 4.91171L33.3384 4.81559C32.3533 3.94088 31.024 3.47949 29.513 3.47949C27.8777 3.47949 26.3857 4.037 25.3242 5.04628C24.2626 6.05556 23.6602 7.49741 23.6602 9.07378C23.6602 10.6502 24.2435 12.1112 25.3146 13.1494C26.3857 14.1875 27.8681 14.7738 29.4938 14.7738C31.1961 14.7738 32.6785 14.1779 33.6922 13.0917L32.162 11.9575L31.6456 12.2554Z" fill="#343434"/>
<path d="M18.1901 9.14184C18.1901 8.59388 18.1423 8.046 18.0467 7.50776L16.0862 8.95914C16.0862 9.01685 16.0862 9.08413 16.0862 9.15141C16.0862 13.0347 12.9589 16.1875 9.09532 16.1972C5.23164 16.2067 2.09482 13.0539 2.08526 9.17062C2.08526 5.26809 5.21252 2.11529 9.08573 2.11529C10.5012 2.11529 11.8783 2.53823 13.045 3.34565L14.8142 2.03839C10.9028 -1.14325 5.17427 -0.528069 2.01832 3.40333C-1.13763 7.3347 -0.525569 13.0828 3.3859 16.2548C7.29737 19.4268 13.0259 18.8117 16.1722 14.8803C17.4825 13.2559 18.1901 11.2277 18.1901 9.14184Z" fill="#343434"/>
<path d="M16.2963 3.54688C16.7267 4.10439 17.0901 4.71956 17.3866 5.36358L9.10456 11.5058L5.64258 9.32381V6.69968L9.10456 8.88163L16.2963 3.54688Z" fill="#343434"/>
</g>
<defs>
<clipPath id="clip0_201_3941">
<rect width="149" height="29" fill="white"/>
</clipPath>
</defs>
</svg>

<svg width="149" height="29" fill="none" xmlns="http://www.w3.org/2000/svg"><g clip-path="url(#a)" fill="#343434"><path d="m28.69 26.434-4.792-8.623h2.267l3.52 6.393 2.878-6.393h2.047l-4.008 8.719c-.889 1.922-1.72 2.422-2.83 2.422-.43 0-.861-.087-1.272-.25v-2.047c.325.288.755.442 1.186.442.41 0 .755-.164 1.004-.663ZM44.517 24.06h-5.996v4.767h-1.96V17.811h1.96v4.441h5.996v-4.44h1.96v11.015h-1.96V24.06ZM51.596 26.04l5.977-8.229h2.132v11.016h-1.96v-8.353l-6.006 8.353h-2.094V17.811h1.96v8.229h-.01ZM62.871 28.827V17.811h4.763c2.438 0 3.691.914 3.691 2.74 0 1.26-.497 2.096-1.626 2.538 1.349.24 1.96 1.105 1.96 2.537 0 2.278-1.625 3.21-4.293 3.21l-4.495-.009Zm4.476-6.354c1.234 0 2.018-.547 2.018-1.499 0-.884-.584-1.355-1.97-1.355h-2.563v2.845h2.515v.01Zm.143 4.547c1.502 0 2.19-.49 2.19-1.538s-.784-1.47-2.161-1.47h-2.697v2.998l2.668.01ZM81.194 24.06h-5.04v2.95h5.796v1.807h-7.747V17.811h7.574v1.808h-5.623v2.624h5.04v1.816ZM86.54 25.395v3.432h-1.962V17.811h3.653c3.463 0 4.935 1.24 4.935 3.73 0 2.567-1.72 3.854-4.935 3.854H86.54Zm0-5.776v3.97h1.835c1.817 0 2.754-.596 2.754-2.096 0-1.355-.813-1.874-2.726-1.874H86.54ZM104.69 27.616c-.545.663-1.989 1.384-3.882 1.384-3.568-.019-5.949-2.143-5.949-5.7 0-3.316 2.353-5.661 5.977-5.661 1.722 0 2.994.538 3.634.99v2.74a4.466 4.466 0 0 0-3.634-1.923c-2.39 0-3.863 1.557-3.863 3.873 0 2.144 1.3 3.826 3.825 3.874 1.913 0 3.251-.884 3.902-2l-.01 2.423ZM108.977 26.04l5.976-8.229h2.133v11.016h-1.96v-8.353l-6.016 8.353h-2.094V17.811h1.961v8.229ZM128.333 19.619h-3.692v9.208h-1.96V19.62h-3.634V17.81h9.286v1.808ZM137.284 24.06h-5.04v2.95h5.796v1.807h-7.747V17.811h7.574v1.808h-5.623v2.624h5.04v1.816ZM148.826 19.619h-3.692v9.208h-1.961V19.62h-3.634V17.81h9.287v1.808ZM52.983 5.47l2.477-1.836h-8.273V14.64h8.273v-1.827h-5.91V9.987h5.04V8.161h-5.04V5.47h3.433ZM40.93 7.93h-2.869V5.47h4.59l2.478-1.836h-9.43V14.64h4.935c2.764 0 4.351-1.26 4.351-3.46 0-2.096-1.444-3.25-4.055-3.25Zm-.41 4.883H38.06V9.766h2.468c1.501 0 2.2.51 2.2 1.529-.01 1.028-.747 1.518-2.21 1.518ZM62.164 3.634H57.66V14.64h2.362v-3.115h2.142c2.88 0 4.668-1.518 4.668-3.95 0-2.432-1.789-3.941-4.667-3.941Zm-.047 6.055h-2.095V5.47h2.095c1.51 0 2.343.75 2.343 2.115 0 1.365-.832 2.105-2.343 2.105ZM31.646 12.255c-.622.337-1.33.52-2.037.51-2.133 0-3.673-1.529-3.673-3.634s1.55-3.633 3.673-3.633c.765-.01 1.52.221 2.151.673l1.693-1.26-.115-.095c-.985-.875-2.314-1.337-3.825-1.337-1.635 0-3.127.558-4.189 1.567-1.061 1.01-1.664 2.451-1.664 4.028 0 1.576.584 3.037 1.655 4.075 1.07 1.039 2.553 1.625 4.179 1.625 1.702 0 3.184-.596 4.198-1.682l-1.53-1.135-.516.298ZM18.19 9.142c0-.548-.048-1.096-.143-1.634l-1.96 1.451v.192c0 3.884-3.128 7.037-6.992 7.046-3.863.01-7-3.143-7.01-7.026 0-3.903 3.128-7.056 7-7.056a6.94 6.94 0 0 1 3.96 1.23l1.77-1.307A9.058 9.058 0 0 0 2.017 3.403c-3.156 3.932-2.544 9.68 1.368 12.852a9.055 9.055 0 0 0 12.786-1.375 9.139 9.139 0 0 0 2.018-5.738Z"/><path d="M16.296 3.547c.43.557.794 1.173 1.09 1.817l-8.281 6.142-3.462-2.182V6.7l3.462 2.182 7.191-5.335Z"/></g><defs><clipPath id="a"><path fill="#fff" d="M0 0h149v29H0z"/></clipPath></defs></svg>
